iconography/32x32/Alerts.svg

<svg width="32" height="32" viewBox="0 0 32 32" fill="none" xmlns="http://www.w3.org/2000/svg">
<path d="M13.7109 24.6574C18.5447 25.9057 22.8411 25.5583 23.3073 23.8815C23.7735 22.2047 20.2329 19.8335 15.3991 18.5852C10.5653 17.3369 6.26882 17.6843 5.80264 19.361C5.33646 21.0378 8.8771 23.4091 13.7109 24.6574Z" stroke="#002E42" stroke-width="2"/>
<path d="M23.361 23.8843C23.3634 23.8667 23.3651 23.8478 23.3698 23.8307V23.8307V23.8307C23.4521 23.3908 23.2995 22.9448 23.284 22.4992C23.2267 20.8563 23.2886 17.9511 24.1075 15.0022C25.3493 10.5307 22.8225 7.28486 18.8728 6.26377C14.9231 5.24267 11.0527 6.83464 9.81089 11.3062C8.92063 14.5118 7.28434 17.2337 6.42658 18.5274C6.32636 18.6785 6.19779 18.8086 6.08484 18.9508C5.99838 19.0596 5.93302 19.176 5.88729 19.2975C5.8863 19.3001 5.8848 19.3026 5.88287 19.3047C5.87475 19.3135 5.86698 19.322 5.86252 19.3268C5.86075 19.3287 5.86164 19.3318 5.86415 19.3324V19.3324C5.86599 19.3329 5.86709 19.3348 5.86646 19.3366C5.86103 19.3523 5.84889 19.3662 5.84446 19.3821C5.37849 21.06 8.9232 23.437 13.7565 24.6865C18.5898 25.936 22.8914 25.5875 23.3574 23.9096C23.3597 23.9015 23.3599 23.8927 23.361 23.8843Z" stroke="#002E42" stroke-width="2"/>
<path d="M18.9999 11C19.8332 11.1667 21.3999 12.2 20.9999 15" stroke="#002E42" stroke-width="2" stroke-linecap="round"/>
<path d="M19.9366 3.63989L19.414 5.52197" stroke="#002E42" stroke-width="2" stroke-linecap="round"/>
<path d="M14.9672 20L14.7055 20.9412" stroke="#002E42" stroke-width="2" stroke-linecap="round"/>
</svg>

<svg width="32" height="32" fill="none" xmlns="http://www.w3.org/2000/svg"><path d="M13.71 24.657c4.835 1.249 9.131.901 9.597-.776.466-1.676-3.074-4.047-7.908-5.296-4.834-1.248-9.13-.9-9.596.776-.467 1.677 3.074 4.048 7.908 5.296Z" stroke="#002E42" stroke-width="2"/><path d="M23.361 23.884c.002-.017.004-.036.009-.053.082-.44-.07-.886-.086-1.332-.057-1.643.005-4.548.824-7.497 1.241-4.471-1.285-7.717-5.235-8.738s-7.82.57-9.062 5.042c-.89 3.206-2.527 5.928-3.384 7.221-.1.151-.23.282-.342.424a1.281 1.281 0 0 0-.202.354l-.02.022a.003.003 0 0 0 .001.005c.002 0 .003.003.002.005-.005.015-.017.03-.022.045-.466 1.678 3.08 4.055 7.913 5.304 4.833 1.25 9.134.901 9.6-.776.003-.009.003-.017.004-.026Z" stroke="#002E42" stroke-width="2"/><path d="M19 11c.833.167 2.4 1.2 2 4M19.937 3.64l-.523 1.882M14.967 20l-.261.941" stroke="#002E42" stroke-width="2" stroke-linecap="round"/></svg>
